www/assets/icons/wifi_calling_3.svg

<svg width="24" height="24" viewBox="0 0 24 24" xmlns="http://www.w3.org/2000/svg" fill='currentColor'><path d="M15.9257 2.99951C13.7157 2.99951 11.7157 3.89951 10.2657 5.33951L11.3257 6.39951C12.5057 5.21951 14.1257 4.48951 15.9157 4.48951C17.7057 4.48951 19.3357 5.21951 20.5057 6.39951L21.5657 5.33951C20.1357 3.89951 18.1357 2.99951 15.9257 2.99951Z"/><path d="M19.4657 7.45951C18.5557 6.55951 17.3057 5.99951 15.9257 5.99951C14.5457 5.99951 13.2957 6.55951 12.3857 7.45951L13.4457 8.51951C14.0757 7.88951 14.9557 7.48951 15.9157 7.48951C16.8757 7.48951 17.7557 7.87951 18.3857 8.51951L19.4657 7.45951Z"/><path d="M14.5157 9.58951L15.9257 10.9995L17.3357 9.58951C16.9757 9.21951 16.4757 8.99951 15.9257 8.99951C15.3757 8.99951 14.8757 9.21951 14.5157 9.58951Z"/><path d="M15.0657 14.3995L12.5457 16.8995C10.0457 15.4695 7.97569 13.3995 6.54569 10.8995L9.04569 8.37951C9.27569 8.13951 9.37569 7.80951 9.31569 7.47951L8.56569 3.79951C8.47569 3.33951 8.06569 2.99951 7.58569 2.99951H3.43569C2.87569 2.99951 2.40569 3.46951 2.43569 4.02951C2.60569 6.91951 3.48569 9.62951 4.86569 11.9995C6.44569 14.7295 8.71569 16.9895 11.4357 18.5695C13.8057 19.9395 16.5157 20.8295 19.4057 20.9995C19.9657 21.0295 20.4357 20.5595 20.4357 19.9995V15.8495C20.4357 15.3695 20.0957 14.9595 19.6357 14.8695L15.9657 14.1395C15.6357 14.0695 15.2957 14.1695 15.0657 14.3995Z"/></svg>

<svg xmlns="http://www.w3.org/2000/svg" width="24" height="24" viewBox="0 0 24 24" fill='currentColor'><path d="M15.926 3c-2.21 0-4.21.9-5.66 2.34l1.06 1.06a6.47 6.47 0 0 1 9.18 0l1.06-1.06A7.93 7.93 0 0 0 15.926 3"/><path d="M19.466 7.46a5.02 5.02 0 0 0-7.08 0l1.06 1.06c.63-.63 1.51-1.03 2.47-1.03s1.84.39 2.47 1.03zm-4.95 2.13 1.41 1.41 1.41-1.41c-.36-.37-.86-.59-1.41-.59s-1.05.22-1.41.59"/><path d="m15.066 14.4-2.52 2.5c-2.5-1.43-4.57-3.5-6-6l2.5-2.52c.23-.24.33-.57.27-.9l-.75-3.68c-.09-.46-.5-.8-.98-.8h-4.15c-.56 0-1.03.47-1 1.03.17 2.89 1.05 5.6 2.43 7.97 1.58 2.73 3.85 4.99 6.57 6.57 2.37 1.37 5.08 2.26 7.97 2.43.56.03 1.03-.44 1.03-1v-4.15c0-.48-.34-.89-.8-.98l-3.67-.73a.99.99 0 0 0-.9.26"/></svg>
